X:1
T: The Strynd
C: Hugh C. Inkster
P:Adapted by Bruce Shawyer
R:Strathspey
Q: 128
K:D
M:4/4
L:1/16
|:D4 B4 AD3 B4|A3B d3e f4 ed3|B3A d3A ((3B2c2d2) A3F|B3A d3F E4 A4|
DD3 B4 AD3 B4|A3B d3e f4 ed3|B3A d3A ((3B2c2d2) A3F|E4 D4 D4 A4|
d3e f3g a4 fd3|g4 fd3 e4 cA3|d4 cA3 B4 AF3|G3E F3D E4 A4|
|1d3e f3g a4 fd3|g4 f3d e4 cA3|d4 c3A BG3 A3G|F4 D4 D4 A4:|
|2DD3 B4 AD3 B4|A3B d3e f4 ed3|B3A d3A ((3B2c2d2) A3F|E4 D4 D8||
